ukui-icon-theme-default/scalable/actions/view-more-horizontal-symbolic.svg

<?xml version="1.0" encoding="iso-8859-1"?>
<!-- Generator: Adobe Illustrator 24.0.0, SVG Export Plug-In . SVG Version: 6.00 Build 0)  -->
<svg version="1.1" id="v" xmlns="http://www.w3.org/2000/svg" xmlns:xlink="http://www.w3.org/1999/xlink" x="0px" y="0px"
	 viewBox="0 0 16 16" style="enable-background:new 0 0 16 16;" xml:space="preserve">
<title>16</title>
<g id="_16">
	<path style="fill:#808080;" d="M15,7v2h-2V7H15 M15,6h-2c-0.552,0-1,0.448-1,1v2c0,0.552,0.448,1,1,1h2c0.552,0,1-0.448,1-1V7
		C16,6.448,15.552,6,15,6z"/>
	<path style="fill:#808080;" d="M9,7v2H7V7H9 M9,6H7C6.448,6,6,6.448,6,7v2c0,0.552,0.448,1,1,1h2c0.552,0,1-0.448,1-1V7
		C10,6.448,9.552,6,9,6z"/>
	<path style="fill:#808080;" d="M3,7v2H1V7H3 M3,6H1C0.448,6,0,6.448,0,7v2c0,0.552,0.448,1,1,1h2c0.552,0,1-0.448,1-1V7
		C4,6.448,3.552,6,3,6z"/>
</g>
</svg>

<svg id="v" xmlns="http://www.w3.org/2000/svg" viewBox="0 0 16 16"><defs><style>.cls-1{fill:gray;}</style></defs><title>16</title><g id="_16" data-name="16"><path class="cls-1" d="M15,7V9H13V7h2m0-1H13a1,1,0,0,0-1,1V9a1,1,0,0,0,1,1h2a1,1,0,0,0,1-1V7a1,1,0,0,0-1-1Z"/><path class="cls-1" d="M9,7V9H7V7H9M9,6H7A1,1,0,0,0,6,7V9a1,1,0,0,0,1,1H9a1,1,0,0,0,1-1V7A1,1,0,0,0,9,6Z"/><path class="cls-1" d="M3,7V9H1V7H3M3,6H1A1,1,0,0,0,0,7V9a1,1,0,0,0,1,1H3A1,1,0,0,0,4,9V7A1,1,0,0,0,3,6Z"/></g></svg>
